;FLAVOR:Marlin
;TIME:4951
;Filament used: 1.3277m
;Layer height: 0.1
;MINX:-22.799
;MINY:-22.799
;MINZ:0.3
;MAXX:22.799
;MAXY:22.799
;MAXZ:27.2
;TARGET_MACHINE.NAME:Unknown
;Generated with Cura_SteamEngine 5.6.0
M140 S60
M105
M190 S60
M104 S200
M105
M109 S200
M82 ;absolute extrusion mode
G28 ;Home
G1 Z15.0 F6000 ;Move the platform down 15mm
;Prime the extruder
G92 E0
G1 F200 E3
G92 E0
G92 E0
G92 E0
G1 F1500 E-6.5
;LAYER_COUNT:270
;LAYER:0
M107
G0 F3600 X-15.622 Y22.799 Z0.3
;TYPE:SKIRT
G1 F1500 E0
G1 F1800 X-17.675 Y22.376 E0.03943
G1 X-19.549 Y21.318 E0.07991
G1 X-20.432 Y20.627 E0.101
G1 X-21.541 Y19.25 E0.13426
G1 X-22.525 Y17.276 E0.17575
G1 X-22.747 Y15.753 E0.2047
G1 X-22.799 Y-15.622 E0.79488
G1 X-22.376 Y-17.675 E0.83431
G1 X-21.318 Y-19.549 E0.87479
G1 X-20.627 Y-20.432 E0.89588
G1 X-19.25 Y-21.541 E0.92914
G1 X-17.276 Y-22.525 E0.97063
G1 X-15.753 Y-22.747 E0.99958
G1 X15.622 Y-22.799 E1.58976
G1 X17.675 Y-22.376 E1.62919
G1 X19.549 Y-21.318 E1.66967
G1 X20.432 Y-20.627 E1.69077
G1 X21.541 Y-19.25 E1.72402
G1 X22.525 Y-17.276 E1.76551
G1 X22.747 Y-15.753 E1.79446
G1 X22.799 Y15.622 E2.38465
G1 X22.376 Y17.675 E2.42408
G1 X21.318 Y19.549 E2.46456
G1 X20.627 Y20.432 E2.48565
G1 X19.25 Y21.541 E2.51891
G1 X17.276 Y22.525 E2.5604
G1 X15.753 Y22.747 E2.58935
G1 X-15.622 Y22.799 E3.17953
G0 F3600 X-15.58 Y22.399
G1 F1800 X-17.533 Y21.997 E3.21704
G1 X-19.302 Y21.003 E3.25521
G1 X-20.149 Y20.34 E3.27544
G1 X-21.204 Y19.03 E3.30708
G1 X-22.138 Y17.156 E3.34646
G1 X-22.351 Y15.695 E3.37424
G1 X-22.399 Y-15.58 E3.96254
G1 X-21.997 Y-17.533 E4.00005
G1 X-21.003 Y-19.302 E4.03821
G1 X-20.34 Y-20.149 E4.05845
G1 X-19.03 Y-21.204 E4.09009
G1 X-17.156 Y-22.138 E4.12947
G1 X-15.695 Y-22.351 E4.15725
G1 X15.58 Y-22.399 E4.74555
G1 X17.533 Y-21.997 E4.78305
G1 X19.302 Y-21.003 E4.82122
G1 X20.149 Y-20.34 E4.84146
G1 X21.204 Y-19.03 E4.8731
G1 X22.138 Y-17.156 E4.91248
G1 X22.351 Y-15.695 E4.94026
G1 X22.399 Y15.58 E5.52856
G1 X21.997 Y17.533 E5.56606
G1 X21.003 Y19.302 E5.60423
G1 X20.34 Y20.149 E5.62447
G1 X19.03 Y21.204 E5.65611
G1 X17.156 Y22.138 E5.69549
G1 X15.695 Y22.351 E5.72326
G1 X-15.58 Y22.399 E6.31157
G0 F3600 X-15.538 Y21.999
G1 F1800 X-17.393 Y21.617 E6.34719
G1 X-19.055 Y20.688 E6.38301
G1 X-19.868 Y20.051 E6.40243
G1 X-20.865 Y18.814 E6.43232
G1 X-21.751 Y17.036 E6.46969
G1 X-21.955 Y15.637 E6.49628
G1 X-21.999 Y-15.538 E7.0827
G1 X-21.617 Y-17.393 E7.11833
G1 X-20.688 Y-19.055 E7.15414
G1 X-20.051 Y-19.868 E7.17357
G1 X-18.814 Y-20.865 E7.20346
G1 X-17.036 Y-21.751 E7.24082
G1 X-15.637 Y-21.955 E7.26742
G1 X15.538 Y-21.999 E7.85384
G1 X17.393 Y-21.617 E7.88946
G1 X19.055 Y-20.688 E7.92528
G1 X19.868 Y-20.051 E7.94471
G1 X20.865 Y-18.814 E7.97459
G1 X21.751 Y-17.036 E8.01196
G1 X21.955 Y-15.637 E8.03856
G1 X21.999 Y15.538 E8.62498
G1 X21.617 Y17.393 E8.6606
G1 X20.688 Y19.055 E8.69642
G1 X20.051 Y19.868 E8.71585
G1 X18.814 Y20.865 E8.74573
G1 X17.036 Y21.751 E8.7831
G1 X15.637 Y21.955 E8.80969
G1 X-15.538 Y21.999 E9.39611
G0 F3600 X-15.496 Y21.599
G1 F1800 X-17.252 Y21.237 E9.42984
G1 X-18.808 Y20.373 E9.46332
G1 X-19.587 Y19.762 E9.48194
G1 X-20.526 Y18.597 E9.51009
G1 X-21.364 Y16.916 E9.54542
G1 X-21.559 Y15.579 E9.57083
G1 X-21.599 Y-15.496 E10.15537
G1 X-21.237 Y-17.252 E10.1891
G1 X-20.373 Y-18.808 E10.22258
G1 X-19.762 Y-19.587 E10.2412
G1 X-18.597 Y-20.526 E10.26935
G1 X-16.916 Y-21.364 E10.30468
G1 X-15.579 Y-21.559 E10.33009
G1 X15.496 Y-21.599 E10.91463
G1 X17.252 Y-21.237 E10.94836
G1 X18.808 Y-20.373 E10.98184
G1 X19.587 Y-19.762 E11.00046
G1 X20.526 Y-18.597 E11.02861
G1 X21.364 Y-16.916 E11.06394
G1 X21.559 Y-15.579 E11.08935
G1 X21.599 Y15.496 E11.67389
G1 X21.237 Y17.252 E11.70762
G1 X20.373 Y18.808 E11.7411
G1 X19.762 Y19.587 E11.75972
G1 X18.597 Y20.526 E11.78787
G1 X16.916 Y21.364 E11.8232
G1 X15.579 Y21.559 E11.84861
G1 X-15.496 Y21.599 E12.43315
G0 F3600 X-15.454 Y21.199
G1 F1800 X-17.113 Y20.857 E12.46502
G1 X-18.561 Y20.058 E12.49613
G1 X-19.304 Y19.476 E12.51388
G1 X-20.189 Y18.377 E12.54042
G1 X-20.977 Y16.796 E12.57365
G1 X-21.163 Y15.521 E12.59789
G1 X-21.199 Y-15.454 E13.18054
G1 X-20.857 Y-17.113 E13.21241
G1 X-20.058 Y-18.561 E13.24352
G1 X-19.476 Y-19.304 E13.26127
G1 X-18.377 Y-20.189 E13.28781
G1 X-16.796 Y-20.977 E13.32104
G1 X-15.521 Y-21.163 E13.34528
G1 X15.454 Y-21.199 E13.92794
G1 X17.113 Y-20.857 E13.9598
G1 X18.561 Y-20.058 E13.99091
G1 X19.304 Y-19.476 E14.00866
G1 X20.189 Y-18.377 E14.0352
G1 X20.977 Y-16.796 E14.06843
G1 X21.163 Y-15.521 E14.09267
G1 X21.199 Y15.454 E14.67533
G1 X20.857 Y17.113 E14.70719
G1 X20.058 Y18.561 E14.7383
G1 X19.476 Y19.304 E14.75605
G1 X18.377 Y20.189 E14.7826
G1 X16.796 Y20.977 E14.81582
G1 X15.521 Y21.163 E14.84006
G1 X-15.454 Y21.199 E15.42272
G0 F3600 X-15.412 Y20.799
G1 F1800 X-16.973 Y20.477 E15.4527
G1 X-18.314 Y19.743 E15.48146
G1 X-19.023 Y19.187 E15.49841
G1 X-19.85 Y18.161 E15.52319
G1 X-20.59 Y16.676 E15.5544
G1 X-20.767 Y15.463 E15.57746
G1 X-20.799 Y-15.412 E16.15824
G1 X-20.477 Y-16.973 E16.18822
G1 X-19.743 Y-18.314 E16.21698
G1 X-19.187 Y-19.023 E16.23393
G1 X-18.161 Y-19.85 E16.25871
G1 X-16.676 Y-20.59 E16.28992
G1 X-15.463 Y-20.767 E16.31298
G1 X15.412 Y-20.799 E16.89376
G1 X16.973 Y-20.477 E16.92374
G1 X18.314 Y-19.743 E16.9525
G1 X19.023 Y-19.187 E16.96945
G1 X19.85 Y-18.161 E16.99423
G1 X20.59 Y-16.676 E17.02544
G1 X20.767 Y-15.463 E17.0485
G1 X20.799 Y15.412 E17.62928
G1 X20.477 Y16.973 E17.65926
G1 X19.743 Y18.314 E17.68802
G1 X19.187 Y19.023 E17.70497
G1 X18.161 Y19.85 E17.72975
G1 X16.676 Y20.59 E17.76096
G1 X15.463 Y20.767 E17.78402
G1 X-15.412 Y20.799 E18.3648
G1 F1500 E11.8648
G0 F3600 X15.405 Y20.371
G1 F1500 E18.3648
G1 F1800 X-15.37 Y20.399 E18.94369
G1 X-16.836 Y20.097 E18.97185
G1 X-18.067 Y19.428 E18.9982
G1 X-18.742 Y18.898 E19.01435
G1 X-19.511 Y17.945 E19.03738
G1 X-20.203 Y16.556 E19.06657
G1 X-20.371 Y15.405 E19.08845
G1 X-20.399 Y-15.37 E19.66735
G1 X-20.097 Y-16.836 E19.6955
G1 X-19.428 Y-18.067 E19.72186
G1 X-18.898 Y-18.742 E19.738
G1 X-17.945 Y-19.511 E19.76104
G1 X-16.556 Y-20.203 E19.79023
G1 X-15.405 Y-20.371 E19.81211
G1 X15.37 Y-20.399 E20.391
G1 X16.836 Y-20.097 E20.41916
G1 X18.067 Y-19.428 E20.44551
G1 X18.742 Y-18.898 E20.46166
G1 X19.511 Y-17.945 E20.48469
G1 X20.203 Y-16.556 E20.51388
G1 X20.371 Y-15.405 E20.53576
G1 X20.399 Y15.37 E21.11466
G1 X20.097 Y16.836 E21.14281
G1 X19.428 Y18.067 E21.16917
G1 X18.898 Y18.742 E21.18531
G1 X17.945 Y19.511 E21.20834
G1 X16.556 Y20.203 E21.23754
G1 X15.405 Y20.371 E21.25942
G0 F3600 X15.347 Y19.975
G1 F1800 X-15.328 Y19.999 E21.83643
G1 X-16.698 Y19.717 E21.86274
G1 X-17.82 Y19.113 E21.88671
G1 X-18.461 Y18.61 E21.90204
G1 X-19.172 Y17.728 E21.92335
G1 X-19.816 Y16.436 E21.9505
G1 X-19.975 Y15.347 E21.9712
G1 X-19.999 Y-15.328 E22.54822
G1 X-19.717 Y-16.698 E22.57453
G1 X-19.113 Y-17.82 E22.5985
G1 X-18.61 Y-18.461 E22.61382
G1 X-17.728 Y-19.172 E22.63514
G1 X-16.436 Y-19.816 E22.66229
G1 X-15.347 Y-19.975 E22.68299
G1 X15.328 Y-19.999 E23.26001
G1 X16.698 Y-19.717 E23.28632
G1 X17.82 Y-19.113 E23.31029
G1 X18.461 Y-18.61 E23.32561
G1 X19.172 Y-17.728 E23.34692
G1 X19.816 Y-16.436 E23.37408
G1 X19.975 Y-15.347 E23.39478
G1 X19.999 Y15.328 E23.97179
G1 X19.717 Y16.698 E23.9981
G1 X19.113 Y17.82 E24.02207
G1 X18.61 Y18.461 E24.0374
G1 X17.728 Y19.172 E24.05871
G1 X16.436 Y19.816 E24.08587
G1 X15.347 Y19.975 E24.10657
G0 F3600 X15.289 Y19.579
G1 F1800 X-15.286 Y19.599 E24.6817
G1 X-16.561 Y19.337 E24.70619
G1 X-17.63 Y18.761 E24.72903
G1 X-18.177 Y18.325 E24.74219
G1 X-18.835 Y17.508 E24.76192
G1 X-19.429 Y16.316 E24.78697
G1 X-19.579 Y15.289 E24.80649
G1 X-19.599 Y-15.286 E25.38163
G1 X-19.337 Y-16.561 E25.40611
G1 X-18.761 Y-17.63 E25.42895
G1 X-18.325 Y-18.177 E25.44211
G1 X-17.508 Y-18.835 E25.46184
G1 X-16.316 Y-19.429 E25.4869
G1 X-15.289 Y-19.579 E25.50642
G1 X15.286 Y-19.599 E26.08155
G1 X16.561 Y-19.337 E26.10604
G1 X17.63 Y-18.761 E26.12888
G1 X18.177 Y-18.325 E26.14204
G1 X18.835 Y-17.508 E26.16177
G1 X19.429 Y-16.316 E26.18682
G1 X19.579 Y-15.289 E26.20634
G1 X19.599 Y15.286 E26.78148
G1 X19.337 Y16.561 E26.80596
G1 X18.761 Y17.63 E26.8288
G1 X18.325 Y18.177 E26.84196
G1 X17.508 Y18.835 E26.86169
G1 X16.316 Y19.429 E26.88675
G1 X15.289 Y19.579 E26.90627
G0 F3600 X15.231 Y19.183
G1 F1800 X-15.245 Y19.199 E27.47954
G1 X-16.423 Y18.957 E27.50216
G1 X-17.44 Y18.409 E27.52389
G1 X-17.89 Y18.043 E27.5348
G1 X-18.498 Y17.288 E27.55304
G1 X-19.042 Y16.196 E27.57599
G1 X-19.183 Y15.231 E27.59433
G1 X-19.199 Y-15.245 E28.1676
G1 X-18.957 Y-16.423 E28.19022
G1 X-18.409 Y-17.44 E28.21195
G1 X-18.043 Y-17.89 E28.22287
G1 X-17.288 Y-18.498 E28.2411
G1 X-16.196 Y-19.042 E28.26405
G1 X-15.231 Y-19.183 E28.28239
G1 X15.245 Y-19.199 E28.85566
G1 X16.423 Y-18.957 E28.87829
G1 X17.44 Y-18.409 E28.90002
G1 X17.89 Y-18.043 E28.91093
G1 X18.498 Y-17.288 E28.92916
G1 X19.042 Y-16.196 E28.95211
G1 X19.183 Y-15.231 E28.97046
G1 X19.199 Y15.245 E29.54373
G1 X18.957 Y16.423 E29.56635
G1 X18.409 Y17.44 E29.58808
G1 X18.043 Y17.89 E29.59899
G1 X17.288 Y18.498 E29.61723
G1 X16.196 Y19.042 E29.64017
G1 X15.231 Y19.183 E29.65852
G0 F3600 X15.173 Y18.787
G1 F1800 X-15.204 Y18.799 E30.22993
G1 X-16.285 Y18.577 E30.25069
G1 X-17.193 Y18.094 E30.27003
G1 X-17.578 Y17.792 E30.27924
G1 X-18.161 Y17.068 E30.29672
G1 X-18.655 Y16.076 E30.31757
G1 X-18.787 Y15.173 E30.33473
G1 X-18.799 Y-15.204 E30.90614
G1 X-18.577 Y-16.285 E30.9269
G1 X-18.094 Y-17.193 E30.94625
G1 X-17.792 Y-17.578 E30.95545
G1 X-17.068 Y-18.161 E30.97294
G1 X-16.076 Y-18.655 E30.99378
G1 X-15.173 Y-18.787 E31.01095
G1 X15.204 Y-18.799 E31.58236
G1 X16.285 Y-18.577 E31.60312
G1 X17.193 Y-18.094 E31.62246
G1 X17.578 Y-17.792 E31.63167
G1 X18.161 Y-17.068 E31.64915
G1 X18.655 Y-16.076 E31.67
G1 X18.787 Y-15.173 E31.68716
G1 X18.799 Y15.204 E32.25857
G1 X18.577 Y16.285 E32.27933
G1 X18.094 Y17.193 E32.29868
G1 X17.792 Y17.578 E32.30788
G1 X17.068 Y18.161 E32.32537
G1 X16.076 Y18.655 E32.34621
G1 X15.173 Y18.787 E32.36338
G0 F3600 X15.115 Y18.391
G1 F1800 X-15.163 Y18.399 E32.93292
G1 X-16.149 Y18.197 E32.95186
G1 X-16.954 Y17.773 E32.96897
G1 X-17.266 Y17.541 E32.97629
G1 X-17.824 Y16.848 E32.99302
G1 X-18.268 Y15.956 E33.01176
G1 X-18.391 Y15.115 E33.02775
G1 X-18.399 Y-15.163 E33.5973
G1 X-18.197 Y-16.149 E33.61623
G1 X-17.773 Y-16.954 E33.63335
G1 X-17.541 Y-17.266 E33.64066
G1 X-16.848 Y-17.824 E33.65739
G1 X-15.956 Y-18.268 E33.67614
G1 X-15.115 Y-18.391 E33.69213
G1 X15.163 Y-18.399 E34.26167
G1 X16.149 Y-18.197 E34.2806
G1 X16.954 Y-17.773 E34.29772
G1 X17.266 Y-17.541 E34.30503
G1 X17.824 Y-16.848 E34.32177
G1 X18.268 Y-15.956 E34.34051
G1 X18.391 Y-15.115 E34.3565
G1 X18.399 Y15.163 E34.92605
G1 X18.197 Y16.149 E34.94498
G1 X17.773 Y16.954 E34.96209
G1 X17.541 Y17.266 E34.96941
G1 X16.848 Y17.824 E34.98614
G1 X15.956 Y18.268 E35.00488
G1 X15.115 Y18.391 E35.02087
G0 F3600 X15.057 Y17.995
G1 F1800 X-15.122 Y17.999 E35.58856
G1 X-16.012 Y17.817 E35.60564
G1 X-16.767 Y17.419 E35.6217
G1 X-16.987 Y17.25 E35.62692
G1 X-17.485 Y16.632 E35.64185
G1 X-17.881 Y15.836 E35.65857
G1 X-17.995 Y15.057 E35.67338
G1 X-17.999 Y-15.122 E36.24106
G1 X-17.817 Y-16.012 E36.25815
G1 X-17.419 Y-16.767 E36.27421
G1 X-17.25 Y-16.987 E36.27942
G1 X-16.632 Y-17.485 E36.29435
G1 X-15.836 Y-17.881 E36.31108
G1 X-15.057 Y-17.995 E36.32589
G1 X15.122 Y-17.999 E36.89357
G1 X16.012 Y-17.817 E36.91066
G1 X16.767 Y-17.419 E36.92671
G1 X16.987 Y-17.25 E36.93193
G1 X17.485 Y-16.632 E36.94686
G1 X17.881 Y-15.836 E36.96359
G1 X17.995 Y-15.057 E36.97839
G1 X17.999 Y15.122 E37.54608
G1 X17.817 Y16.012 E37.56317
G1 X17.419 Y16.767 E37.57922
G1 X17.25 Y16.987 E37.58444
G1 X16.632 Y17.485 E37.59937
G1 X15.836 Y17.881 E37.61609
G1 X15.057 Y17.995 E37.6309
G0 F3600 X14.999 Y17.599
G1 F1800 X15.716 Y17.494 E37.64453
G1 X16.416 Y17.146 E37.65924
G1 X16.962 Y16.706 E37.67243
G1 X17.065 Y16.581 E37.67547
G1 X17.436 Y15.877 E37.69044
G1 X17.599 Y15.081 E37.70573
G1 X17.599 Y-14.999 E38.27155
G1 X17.494 Y-15.716 E38.28518
G1 X17.146 Y-16.416 E38.29989
G1 X16.706 Y-16.962 E38.31308
G1 X16.581 Y-17.065 E38.31612
G1 X15.877 Y-17.436 E38.33109
G1 X15.081 Y-17.599 E38.34638
G1 X-14.999 Y-17.599 E38.9122
G1 X-15.716 Y-17.494 E38.92583
G1 X-16.416 Y-17.146 E38.94053
G1 X-16.962 Y-16.706 E38.95372
G1 X-17.065 Y-16.581 E38.95677
G1 X-17.436 Y-15.877 E38.97174
G1 X-17.599 Y-15.081 E38.98702
G1 X-17.599 Y14.999 E39.55284
G1 X-17.494 Y15.716 E39.56648
G1 X-17.146 Y16.416 E39.58118
G1 X-16.706 Y16.962 E39.59437
G1 X-16.581 Y17.065 E39.59742
G1 X-15.877 Y17.436 E39.61239
G1 X-15.081 Y17.599 E39.62767
G1 X14.999 Y17.599 E40.19349
G0 F3600 X14.999 Y17.199
G1 F1800 X-15.04 Y17.199 E40.75854
G1 X-15.742 Y17.055 E40.77202
G1 X-16.395 Y16.711 E40.78591
G1 X-16.807 Y16.2 E40.79825
G1 X-17.108 Y15.594 E40.81098
G1 X-17.199 Y14.999 E40.8223
G1 X-17.199 Y-15.04 E41.38735
G1 X-17.055 Y-15.742 E41.40083
G1 X-16.711 Y-16.395 E41.41472
G1 X-16.2 Y-16.807 E41.42706
G1 X-15.594 Y-17.108 E41.43979
G1 X-14.999 Y-17.199 E41.45111
G1 X15.04 Y-17.199 E42.01616
G1 X15.742 Y-17.055 E42.02964
G1 X16.395 Y-16.711 E42.04353
G1 X16.807 Y-16.2 E42.05588
G1 X17.108 Y-15.594 E42.0686
G1 X17.199 Y-14.999 E42.07993
G1 X17.199 Y15.04 E42.64498
G1 X17.055 Y15.742 E42.65846
G1 X16.711 Y16.395 E42.67234
G1 X16.2 Y16.807 E42.68469
G1 X15.594 Y17.108 E42.69741
G1 X14.999 Y17.199 E42.70874
G0 F3600 X14.999 Y16.799
G1 F1800 X-14.999 Y16.799 E43.27302
G1 X-15.605 Y16.675 E43.28465
G1 X-16.137 Y16.394 E43.29597
G1 X-16.449 Y16.022 E43.3051
G1 X-16.722 Y15.473 E43.31664
G1 X-16.799 Y14.999 E43.32567
G1 X-16.799 Y-14.999 E43.88995
G1 X-16.675 Y-15.605 E43.90158
G1 X-16.394 Y-16.137 E43.9129
G1 X-16.022 Y-16.449 E43.92203
G1 X-15.473 Y-16.722 E43.93357
G1 X-14.999 Y-16.799 E43.9426
G1 X14.999 Y-16.799 E44.50688
G1 X15.605 Y-16.675 E44.51851
G1 X16.137 Y-16.394 E44.52983
G1 X16.449 Y-16.022 E44.53896
G1 X16.722 Y-15.473 E44.5505
G1 X16.799 Y-14.999 E44.55953
G1 X16.799 Y14.999 E45.12381
G1 X16.675 Y15.605 E45.13545
G1 X16.394 Y16.137 E45.14676
G1 X16.022 Y16.449 E45.1559
G1 X15.473 Y16.722 E45.16743
G1 X14.999 Y16.799 E45.17646
G0 F3600 X14.999 Y16.399
G1 F1800 X15.35 Y16.337 E45.18317
G1 X15.844 Y16.091 E45.19355
G1 X16.076 Y15.882 E45.19942
G1 X16.321 Y15.418 E45.20929
G1 X16.399 Y14.999 E45.21731
G1 X16.399 Y-14.999 E45.78159
G1 X16.337 Y-15.35 E45.78829
G1 X16.091 Y-15.844 E45.79867
G1 X15.882 Y-16.076 E45.80455
G1 X15.418 Y-16.321 E45.81442
G1 X14.999 Y-16.399 E45.82243
G1 X-14.999 Y-16.399 E46.38671
G1 X-15.35 Y-16.337 E46.39342
G1 X-15.844 Y-16.091 E46.4038
G1 X-16.076 Y-15.882 E46.40967
G1 X-16.321 Y-15.418 E46.41954
G1 X-16.399 Y-14.999 E46.42756
G1 X-16.399 Y14.999 E46.99184
G1 X-16.337 Y15.35 E46.99854
G1 X-16.091 Y15.844 E47.00892
G1 X-15.882 Y16.076 E47.0148
G1 X-15.418 Y16.321 E47.02467
G1 X-14.999 Y16.399 E47.03268
G1 X14.999 Y16.399 E47.59696
G0 F3600 X14.999 Y15.999
G1 F1800 X-14.999 Y15.999 E48.16124
G1 X-15.337 Y15.929 E48.16774
G1 X-15.6 Y15.792 E48.17331
G1 X-15.739 Y15.654 E48.177
G1 X-15.945 Y15.272 E48.18516
G1 X-15.999 Y14.999 E48.1904
G1 X-15.999 Y-14.999 E48.75468
G1 X-15.929 Y-15.337 E48.76117
G1 X-15.792 Y-15.6 E48.76675
G1 X-15.654 Y-15.739 E48.77043
G1 X-15.272 Y-15.945 E48.7786
G1 X-14.999 Y-15.999 E48.78383
G1 X14.999 Y-15.999 E49.34811
G1 X15.337 Y-15.929 E49.3546
G1 X15.6 Y-15.792 E49.36018
G1 X15.739 Y-15.654 E49.36386
G1 X15.945 Y-15.272 E49.37203
G1 X15.999 Y-14.999 E49.37726
G1 X15.999 Y14.999 E49.94154
G1 X15.929 Y15.337 E49.94804
G1 X15.792 Y15.6 E49.95361
G1 X15.654 Y15.739 E49.9573
G1 X15.272 Y15.945 E49.96546
G1 X14.999 Y15.999 E49.9707
G0 F3600 X14.999 Y15.199
G1 F1800 X-14.999 Y15.199 E50.53498
G1 X-15.118 Y15.16 E50.53733
G1 X-15.199 Y14.999 E50.54072
G1 X-15.199 Y-14.999 E51.105
G1 X-15.16 Y-15.118 E51.10736
G1 X-14.999 Y-15.199 E51.11075
G1 X14.999 Y-15.199 E51.67503
G1 X15.118 Y-15.16 E51.67738
G1 X15.199 Y-14.999 E51.68077
G1 X15.199 Y14.999 E52.24505
G1 X15.16 Y15.118 E52.24741
G1 X14.999 Y15.199 E52.2508
G0 F3600 X14.999 Y15.599
G1 F1800 X-14.999 Y15.599 E52.81507
G1 X-15.243 Y15.54 E52.8198
G1 X-15.395 Y15.449 E52.82313
